X: 4433
M: 3/4
L: 1/8
K: D
[|!p!\
(d4 c2) | B6 | (B4 A2) | F6 |\
(A2 F2 D2) | A,4 B,2 | C6- | C4 z2 |\
(E4 ^D2) | E6 | (F4 ^E2) | F6 |\
(E4 d2) | (c4 B2) | A6- | A2 (B2 c2) |
(d4 c2) | B6 | (B4 A2) | F6 |\
(F2 E2 D2) | (F2 G2 A2) | B6- | B2 (B2 c2) |\
(d4 B2) | (G4 E2) | A6- | A2 (^G2 A2) |\
|: !f!(3(ded) |\
c2 z2 g2 | g2 z2 (3(BcB) | A2 z2 f2 | f2 z2 (3(ABA) |\
c2 z2 g2 | g2 z2 (3(BcB) | A2 z2 f2 | f2 z2 f2 |\
ee e2 c2 | dd d2 ^G2 | A6- |[1 A2 z2 :|[2 A2 z2 z2 |]


